packages/ffe-icons/icons/filled/lg/next_week.svg

<svg xmlns="http://www.w3.org/2000/svg" height="40" viewBox="0 -960 960 960" width="40"><path d="M162.565-140.001q-25.788 0-44.176-18.388t-18.388-44.176v-434.87q0-25.788 18.388-44.176t44.176-18.388h177.436v-77.435q0-25.788 18.388-44.175 18.388-18.388 44.176-18.388h154.87q25.788 0 44.176 18.388 18.388 18.387 18.388 44.175v77.435h177.436q25.788 0 44.176 18.388t18.388 44.176v434.87q0 25.788-18.388 44.176t-44.176 18.388h-634.87Zm227.691-559.998h179.488v-77.435q0-4.615-3.847-8.462-3.846-3.846-8.462-3.846h-154.87q-4.616 0-8.462 3.846-3.847 3.847-3.847 8.462v77.435ZM515.386-420l-96.462 96.462q-5.744 6.04-5.936 14.263-.192 8.223 5.936 14.351t14.307 6.128q8.179 0 14.307-6.128l103.153-103.153q9.359-9.406 9.359-21.946 0-12.541-9.359-21.9l-103.82-103.564q-5.743-5.743-13.986-5.935-8.244-.193-14.372 5.935-6.128 6.128-6.128 14.179t6.128 14.179L515.386-420Z"/></svg>

<svg xmlns="http://www.w3.org/2000/svg" viewBox="0 -960 960 960" width="32" height="32"><path d="M162.57-140q-25.79 0-44.18-18.39T100-202.57v-434.86q0-25.79 18.39-44.18T162.57-700H340v-77.43q0-25.79 18.39-44.18T402.57-840h154.86q25.79 0 44.18 18.39T620-777.43V-700h177.43q25.79 0 44.18 18.39T860-637.43v434.86q0 25.79-18.39 44.18T797.43-140H162.57Zm227.69-560h179.48v-77.43q0-4.62-3.84-8.47-3.85-3.84-8.47-3.84H402.57q-4.62 0-8.47 3.84-3.84 3.85-3.84 8.47V-700Zm125.13 280-96.47 96.46q-5.74 6.04-5.93 14.27-.19 8.22 5.93 14.35 6.13 6.12 14.31 6.12t14.31-6.12l103.15-103.16q9.36-9.4 9.36-21.94 0-12.54-9.36-21.9L446.87-545.49q-5.74-5.74-13.99-5.93-8.24-.19-14.37 5.93-6.12 6.13-6.12 14.18t6.12 14.18L515.39-420Z"/></svg>
